icons/image-circle-alt.svg

<svg xmlns="http://www.w3.org/2000/svg" viewBox="0 0 24 24" fill="currentColor">
  <path d="M12 3.75c-4.58579 0-8.25 3.66421-8.25 8.25 0 .4844.04269.9603.12461 1.4239l4.27931-3.1272c1.1087-.8284 2.62288-.68071 3.57628.2727l2.612 2.612.7687-.6505c1.1333-.9871 2.6557-.7943 3.6828.1044l.0119.0104 1.2441 1.1849c.1312-.5881.2003-1.2006.2003-1.8306 0-4.58579-3.6642-8.25-8.25-8.25Zm7.5273 11.6545-1.7324-1.6499c-.569-.4905-1.238-.4958-1.7012-.0904l-.0094.0082-.6777.5734 2.9894 2.9894c.4526-.5539.8342-1.1686 1.1313-1.8307ZM12 20.25c-3.51918 0-6.50072-2.2188-7.69338-5.2839l4.73582-3.4608.00746-.0056c.49094-.3682 1.1742-.3151 1.6197.1304l6.6749 6.6749C15.9089 19.5205 14.0462 20.25 12 20.25ZM2.25 12c0-5.41421 4.33579-9.75 9.75-9.75 5.4142 0 9.75 4.33579 9.75 9.75 0 5.4142-4.3358 9.75-9.75 9.75-5.41962 0-9.75-4.4412-9.75-9.75Z"/>
</svg>

<svg width="24" height="24" viewBox="0 0 24 24" fill="none" xmlns="http://www.w3.org/2000/svg">
<path fill-rule="evenodd" clip-rule="evenodd" d="M12 3.75C7.41421 3.75 3.75 7.41421 3.75 12C3.75 12.4844 3.79269 12.9603 3.87461 13.4239L8.15392 10.2967C9.26262 9.4683 10.7768 9.61599 11.7302 10.5694L14.3422 13.1814L15.1109 12.5309C16.2442 11.5438 17.7666 11.7366 18.7937 12.6353L18.8056 12.6457L20.0497 13.8306C20.1809 13.2425 20.25 12.63 20.25 12C20.25 7.41421 16.5858 3.75 12 3.75ZM19.5273 15.4045L17.7949 13.7546C17.2259 13.2641 16.5569 13.2588 16.0937 13.6642L16.0843 13.6724L15.4066 14.2458L18.396 17.2352C18.8486 16.6813 19.2302 16.0666 19.5273 15.4045ZM12 20.25C8.48082 20.25 5.49928 18.0312 4.30662 14.9661L9.04244 11.5053L9.0499 11.4997C9.54084 11.1315 10.2241 11.1846 10.6696 11.6301L17.3445 18.305C15.9089 19.5205 14.0462 20.25 12 20.25ZM2.25 12C2.25 6.58579 6.58579 2.25 12 2.25C17.4142 2.25 21.75 6.58579 21.75 12C21.75 17.4142 17.4142 21.75 12 21.75C6.58038 21.75 2.25 17.3088 2.25 12Z" fill="black"/>
</svg>
